svg/design/paint_brush_fill.svg

<?xml version="1.0" encoding="UTF-8"?>
<svg width="24px" height="24px" viewBox="0 0 24 24" version="1.1" xmlns="http://www.w3.org/2000/svg" xmlns:xlink="http://www.w3.org/1999/xlink">
    <title>paint_brush_fill</title>
    <g id="页面-1" stroke="none" stroke-width="1" fill="none" fill-rule="evenodd">
        <g id="Design" transform="translate(-288.000000, -48.000000)">
            <g id="paint_brush_fill" transform="translate(288.000000, 48.000000)">
                 <path d="M24,0 L24,24 L0,24 L0,0 L24,0 Z M12.5934901,23.257841 L12.5819402,23.2595131 L12.5108777,23.2950439 L12.4918791,23.2987469 L12.4918791,23.2987469 L12.4767152,23.2950439 L12.4056548,23.2595131 C12.3958229,23.2563662 12.3870493,23.2590235 12.3821421,23.2649074 L12.3780323,23.275831 L12.360941,23.7031097 L12.3658947,23.7234994 L12.3769048,23.7357139 L12.4804777,23.8096931 L12.4953491,23.8136134 L12.4953491,23.8136134 L12.5071152,23.8096931 L12.6106902,23.7357139 L12.6232938,23.7196733 L12.6232938,23.7196733 L12.6266527,23.7031097 L12.609561,23.275831 C12.6075724,23.2657013 12.6010112,23.2592993 12.5934901,23.257841 L12.5934901,23.257841 Z M12.8583906,23.1452862 L12.8445485,23.1473072 L12.6598443,23.2396597 L12.6498822,23.2499052 L12.6498822,23.2499052 L12.6471943,23.2611114 L12.6650943,23.6906389 L12.6699349,23.7034178 L12.6699349,23.7034178 L12.678386,23.7104931 L12.8793402,23.8032389 C12.8914285,23.8068999 12.9022333,23.8029875 12.9078286,23.7952264 L12.9118235,23.7811639 L12.8776777,23.1665331 C12.8752882,23.1545897 12.8674102,23.1470016 12.8583906,23.1452862 L12.8583906,23.1452862 Z M12.1430473,23.1473072 C12.1332178,23.1423925 12.1221763,23.1452606 12.1156365,23.1525954 L12.1099173,23.1665331 L12.0757714,23.7811639 C12.0751323,23.7926639 12.0828099,23.8018602 12.0926481,23.8045676 L12.108256,23.8032389 L12.3092106,23.7104931 L12.3186497,23.7024347 L12.3186497,23.7024347 L12.3225043,23.6906389 L12.340401,23.2611114 L12.337245,23.2485176 L12.337245,23.2485176 L12.3277531,23.2396597 L12.1430473,23.1473072 Z" id="MingCute" fill-rule="nonzero"></path>
                <path d="M22.017,3.87391 L21.4276796,5.45540216 C20.9660775,6.52876151 20.7217843,7.09438745 20.6948,7.15228 C20.0166,8.60718 19.0834952,10.3081 17.9675,11.4819 C16.9021,12.6025 15.2942,13.6349 14.0064,14.3682 C14.3373,15.9626 13.8841,17.6872 12.6467,18.9246 C10.3763,21.195 7.84044,21.1954 5.95355,20.6345 C4.52346,20.2093 3.34772,19.4373 2.22437,18.4868 C2.02627,18.3191 2.03881,18.0117 2.25118,17.8625 L2.75141656,17.5011368 C3.4233036,16.99354 4.075846,16.37466 4.24147,15.5465 C4.35588667,14.6208833 4.42143333,14.1163833 4.43811,14.033 C4.57591,13.344 4.86751,12.5616 5.5756,11.8535 C6.81296,10.6162 8.53748,10.1629 10.1318,10.4938 C10.8651,9.20599 11.8976,7.59803 13.0182,6.53254 C14.192,5.41656 15.8929,4.48346 17.3478,3.8053 L19.0446264,3.07238289 L20.6261,2.48301 C21.4896,2.18807 22.312,3.01044 22.017,3.87391 Z M11.9795,11.2926 C12.2138,11.4571 12.4372,11.6441 12.6467,11.8535 C12.8561,12.0629 13.043,12.2863 13.2075,12.5206 C13.5988,12.2938 14.0025,12.0477 14.3972,11.7889 L14.3667,11.7216 C14.2508,11.4743 14.0479,11.1335 13.7073,10.7928 C13.4152714,10.5008571 13.1231694,10.3100816 12.8900003,10.1885458 L12.7111,10.1029 C12.4524,10.4976 12.2063,10.9013 11.9795,11.2926 Z M19.4218,5.07827 C19.0386,5.23698 18.6224,5.41779 18.1927,5.61805 C16.7839,6.27471 15.3265,7.09752 14.3963,7.98198 C14.2392,8.13131 14.082,8.29678 13.9256,8.47475 C14.2884,8.67547 14.7081,8.96527 15.1215,9.37864 C15.5348,9.79197 15.8246,10.2117 16.0253,10.5744 C16.2033,10.4181 16.3688,10.2608 16.5181,10.1038 C17.4025,9.17352 18.2253,7.71612 18.882,6.30732 C19.0823,5.87769 19.2631,5.46144 19.4218,5.07827 Z" id="形状" fill="#09244B"></path>
            </g>
        </g>
    </g>
</svg>

<svg xmlns="http://www.w3.org/2000/svg" width="24" height="24"><g fill="none" fill-rule="evenodd"><path d="M24 0v24H0V0h24ZM12.593 23.258l-.011.002-.071.035-.02.004-.014-.004-.071-.035c-.01-.004-.019-.001-.024.005l-.004.01-.017.428.005.02.01.013.104.074.015.004.012-.004.104-.074.012-.016.004-.017-.017-.427c-.002-.01-.009-.017-.017-.018Zm.265-.113-.013.002-.185.093-.01.01-.003.011.018.43.005.012.008.007.201.093c.012.004.023 0 .029-.008l.004-.014-.034-.614c-.003-.012-.01-.02-.02-.022Zm-.715.002a.023.023 0 0 0-.027.006l-.006.014-.034.614c0 .012.007.02.017.024l.015-.002.201-.093.01-.008.004-.011.017-.43-.003-.012-.01-.01-.184-.092Z"/><path fill="#09244B" d="m22.017 3.874-.59 1.581a250.264 250.264 0 0 1-.732 1.697c-.678 1.455-1.612 3.156-2.727 4.33-1.066 1.12-2.674 2.153-3.962 2.886a4.996 4.996 0 0 1-1.36 4.557c-2.27 2.27-4.806 2.27-6.692 1.71-1.43-.426-2.606-1.198-3.73-2.148a.394.394 0 0 1 .027-.624l.5-.362c.672-.507 1.325-1.126 1.49-1.955.115-.925.18-1.43.197-1.513.138-.689.43-1.471 1.138-2.18a4.996 4.996 0 0 1 4.556-1.36c.733-1.287 1.766-2.895 2.886-3.96 1.174-1.116 2.875-2.05 4.33-2.728l1.697-.733 1.581-.589a1.094 1.094 0 0 1 1.391 1.39ZM11.98 11.293a5.041 5.041 0 0 1 1.227 1.228c.392-.227.795-.473 1.19-.732l-.03-.067a3.312 3.312 0 0 0-.66-.93 3.354 3.354 0 0 0-.817-.603l-.179-.086c-.259.395-.505.798-.732 1.19Zm7.442-6.215c-.383.159-.8.34-1.23.54-1.408.657-2.866 1.48-3.796 2.364a7.63 7.63 0 0 0-.47.493c.362.2.782.49 1.195.904.414.413.704.833.904 1.195.178-.156.344-.313.493-.47.884-.93 1.707-2.388 2.364-3.797.2-.43.381-.846.54-1.229Z"/></g></svg>
